assets/icons/sixthBlockSecondIconsWhite.svg

<?xml version="1.0" encoding="UTF-8"?> <svg xmlns="http://www.w3.org/2000/svg" width="101" height="101" viewBox="0 0 101 101" fill="none"> <path d="M91.7501 56.3604H24.9391V20.6164C24.9391 16.5694 28.2291 13.2764 32.2731 13.2764C35.9081 13.2764 38.9261 15.9344 39.5051 19.4064C33.9031 20.1374 29.5751 24.5914 29.5751 29.9754C29.5751 30.8044 30.2471 31.4754 31.0751 31.4754H51.1611C51.9891 31.4754 52.6611 30.8044 52.6611 29.9754C52.6611 24.5264 48.2301 20.0254 42.5321 19.3774C41.9171 14.2584 37.5551 10.2754 32.2731 10.2754C26.5751 10.2754 21.9391 14.9144 21.9391 20.6154V56.3594H8.24609C7.41809 56.3594 6.74609 57.0304 6.74609 57.8594C6.74609 58.6884 7.41809 59.3594 8.24609 59.3594H14.6721L21.9841 88.5854C22.1511 89.2524 22.7511 89.7214 23.4391 89.7214H76.5611C77.2491 89.7214 77.8491 89.2534 78.0161 88.5854L85.3281 59.3594H91.7491C92.5771 59.3594 93.2491 58.6884 93.2491 57.8594C93.2491 57.0304 92.5791 56.3604 91.7501 56.3604ZM49.4991 28.4764H32.7391C33.5171 24.9544 36.9791 22.2894 41.1211 22.2894C45.2611 22.2904 48.7221 24.9544 49.4991 28.4764ZM75.3911 86.7224H24.6111L17.7651 59.3604H82.2371L75.3911 86.7224Z" fill="#ffffff"></path> </svg>

<svg xmlns="http://www.w3.org/2000/svg" width="101" height="101" fill="none"><path d="M91.75 56.36H24.94V20.616c0-4.047 3.29-7.34 7.333-7.34 3.635 0 6.653 2.658 7.232 6.13-5.602.731-9.93 5.185-9.93 10.57a1.5 1.5 0 0 0 1.5 1.5h20.086a1.5 1.5 0 0 0 1.5-1.5c0-5.45-4.43-9.95-10.129-10.599-.615-5.119-4.977-9.102-10.259-9.102-5.698 0-10.334 4.64-10.334 10.34V56.36H8.246a1.5 1.5 0 1 0 0 3h6.426l7.312 29.226a1.5 1.5 0 0 0 1.455 1.136h53.122a1.5 1.5 0 0 0 1.455-1.136l7.312-29.226h6.421a1.5 1.5 0 0 0 .001-2.999ZM49.5 28.476H32.74c.777-3.522 4.24-6.187 8.381-6.187 4.14.001 7.601 2.665 8.378 6.187ZM75.39 86.722h-50.78L17.765 59.36h64.472l-6.846 27.362Z" fill="#fff"/></svg>
